svg/material-icons/directions_railway_filled/materialiconstwotone/24px.svg

<svg xmlns="http://www.w3.org/2000/svg" width="24" height="24" viewBox="0 0 24 24"><path d="M6 15.5c0 .83.67 1.5 1.5 1.5h9c.83 0 1.5-.67 1.5-1.5V12H6v3.5zm6-2.5c.83 0 1.5.67 1.5 1.5S12.83 16 12 16s-1.5-.67-1.5-1.5.67-1.5 1.5-1.5zm0-9c-3.52 0-4.97.48-5.57 1h11.24c-.54-.54-1.96-1-5.67-1z" opacity=".3"/><path d="M12 2c-4 0-8 .5-8 4v9.5C4 17.43 5.57 19 7.5 19L6 20v1h12v-1l-1.5-1c1.93 0 3.5-1.57 3.5-3.5V6c0-3.5-3.58-4-8-4zm0 2c3.71 0 5.13.46 5.67 1H6.43c.6-.52 2.05-1 5.57-1zm6 11.5c0 .83-.67 1.5-1.5 1.5h-9c-.83 0-1.5-.67-1.5-1.5V12h12v3.5zm0-5.5H6V7h12v3z"/><circle cx="12" cy="14.5" r="1.5"/></svg>

<svg xmlns="http://www.w3.org/2000/svg" enable-background="new 0 0 24 24" height="24" viewBox="0 0 24 24" width="24"><g><rect fill="none" height="24" width="24" y="0"/></g><g><g enable-background="new"><path d="M6,15.5C6,16.33,6.67,17,7.5,17h9c0.83,0,1.5-0.67,1.5-1.5V12H6V15.5z M12,13 c0.83,0,1.5,0.67,1.5,1.5S12.83,16,12,16s-1.5-0.67-1.5-1.5S11.17,13,12,13z" enable-background="new" opacity=".3"/><path d="M12,4C8.48,4,7.03,4.48,6.43,5h11.24C17.13,4.46,15.71,4,12,4z" enable-background="new" opacity=".3"/><path d="M12,2C8,2,4,2.5,4,6v9.5C4,17.43,5.57,19,7.5,19L6,20v1h12v-1l-1.5-1c1.93,0,3.5-1.57,3.5-3.5V6C20,2.5,16.42,2,12,2z M12,4c3.71,0,5.13,0.46,5.67,1H6.43C7.03,4.48,8.48,4,12,4z M18,15.5c0,0.83-0.67,1.5-1.5,1.5h-9C6.67,17,6,16.33,6,15.5V12h12 V15.5z M18,10H6V7h12V10z"/><circle cx="12" cy="14.5" r="1.5"/></g></g></svg>
